X:1
T:Title
%%score 1 { 2 | 3 }
L:1/8
Q:1/4=110
M:4/4
K:C
V:1 treble nm="Grand Piano, Soprano"
V:2 treble nm="Choir Pad, Libya, 11.11.11 D"
V:3 bass 
V:1
 [EG]2 [EG]2 [CE]2 [EG]2 | [Ec]4 [EG]4 | [DG]2 [B,D]2 [B,G]3 [B,F] | [CE]6 z2 | %4
w: By~D.~T.~Browne,~1899 * * *||||
 [EG]2 [EG]2 [CE]2 [EG]2 | [Ec]4 [EG]4 | [D^F]2 [FA]2 [FB]3 [FA] | G6 z2 | [DF]2 D2 [DB]2 [FA]2 | %9
w: |||||
 [FA]4 [EG]4 | [DF]2 D2 [DB]3 [FA] | [EG]6 z2 | [Ec]2 [GB]2 [Gd]2 [Gc]2 | %13
w: ||||
 [GB]2 [FA]2 [DF]2 [A,D]2 | C2 [CE]2 [CE]3 [B,D] | C6 z2 | [Ec]2 [FB]2 [Fd]2 [Ec]2 | [FB]4 [DF]4 | %18
w: |||||
 [DB]2 [DF]2 [FB]3 [FA] | [FA]4 [EG]4 | [Ec]2 [GB]2 [Gd]2 [Gc]2 | [GB]2 [FA]2 [DF]2 [A,D]2 | %22
w: ||||
 C2 [CE]2 [CE]3 [B,D] | C8 |] %24
w: ||
V:2
 C2 C2 G,2 C2 | G,4 C4 | B,2 G,2 D3 D | C6 z2 | C2 C2 G,2 C2 | G,4 C4 | C2 C2 D3 C | B,6 z2 | %8
 B,2 G,2 G,2 B,2 | C4 C4 | B,2 G,2 G,3 B, | C6 z2 | G,2 G,2 C2 C2 | C4[K:bass] A,2 F,2 | %14
 G,2 G,2 G,3 F, | E,6 z2 | G,2 G,2 G,2 G,2 | G,4 B,4 | G,2 G,2 G,3 B, | C8 | G,2 G,2 C2 C2 | %21
 C4 A,2 F,2 | G,2 G,2 G,3 F, | E,8 |] %24
V:3
 C,2 C,2 C,2 C,2 | C,4 C,4 | G,2 z2 G,3 G, | C,6 z2 | C,2 C,2 C,2 C,2 | C,4 C,4 | D,2 D,2 D,3 D, | %7
 G,6 z2 | G,,2 B,,2 D,2 G,2 | C,4 C,4 | G,,2 B,,2 D,3 G, | C,6 z2 | C,2 D,2 E,2 E,2 | F,4 F,2 z2 | %14
 E,2 C,2 G,,3 G,, | C,6 z2 | C,2 D,2 B,,2 C,2 | z4 G,4 | F,2 D,2 z2 z G, | C,8 | C,2 D,2 E,2 E,2 | %21
 F,4 F,2 z2 | E,2 C,2 G,,3 G,, | C,8 |] %24

